SVG/BCN-alt.svg

<svg xmlns="http://www.w3.org/2000/svg" width="226.777" height="226.777" viewBox="0 0 226.777 226.777"><path d="M190.199 97.104s21.134-12.992 21.134-35.948c0-22.955-22.226-52.22-57.207-52.22H55.873v64.118H0v27.328h55.873v36.254H0v27.327h55.873v53.879h90.966c42.996 0 79.797-23.453 79.797-66.087-.001-42.624-36.437-54.651-36.437-54.651zm-51.74-59.391c18.22 0 36.802 8.74 36.802 28.602 0 19.858-19.675 29.876-37.896 29.876H93.278V37.713h45.181zm6.155 145.745H93.278V120.06h51.012c33.885 0 47.909 14.023 47.909 34.613 0 20.587-24.628 28.785-47.585 28.785z"/></svg>

<svg version="1.1" id="Layer_1" xmlns="http://www.w3.org/2000/svg" xmlns:xlink="http://www.w3.org/1999/xlink" x="0px" y="0px"
	 width="226.777px" height="226.777px" viewBox="0 0 226.777 226.777" enable-background="new 0 0 226.777 226.777"
	 xml:space="preserve">
<path id="BCN_alt" fill="#000000" d="M190.199,97.104c0,0,21.134-12.992,21.134-35.948c0-22.955-22.226-52.22-57.207-52.22
	c-21.23,0-98.253,0-98.253,0v64.118H0v27.328h55.873v36.254H0v27.327h55.873v53.879c0,0,68.688,0,90.966,0
	c42.996,0,79.797-23.453,79.797-66.087C226.635,109.131,190.199,97.104,190.199,97.104z M138.459,37.713
	c18.22,0,36.802,8.74,36.802,28.602c0,19.858-19.675,29.876-37.896,29.876c-12.376,0-32.462,0-44.087,0V37.713
	C104.517,37.713,125.57,37.713,138.459,37.713z M144.614,183.458c-13.597,0-35.606,0-51.336,0V120.06c10.479,0,29.068,0,51.012,0
	c33.885,0,47.909,14.023,47.909,34.613C192.199,175.26,167.571,183.458,144.614,183.458z"/>
</svg>
